X: 1
T: GO TO THE DEVIL AND SHAKE YOURSELF -- JIG
B: Ryan's Mammoth Collection of Fiddle Tunes
R: jig
M: 6/8
L: 1/8
Z: Contributed 20001106222111 by John Chambers John.Chambers:weema.com
K: D
 vAdd dcB | ABA AFA | Add d2e | fec B2A \
| Add dcB | ABA AFA | dfd ege | fdd d3 :|
|: uafd dcd | BGG G2g | bge ede | cAA A2A \
|   Add dcB | ABA AFA | dfd ege | fdd d3 :|
